X:1
T: Hombey House
N:
C:
S:
A:
O:
R:
M:3/2
K:D
I:speed 180
%W:
% voice 1 (1 lines, 24 notes)
K:D
M:3/2
L:1/16
D8 |F2 A2 F4 |D2 F2 D4 |A8 |d2 f2 d4 |A2 d2 A4 |B8 |e2 g2 e4 |B2 e2 d4 |c12 |B4 A8 |
%W:
% voice 1 (1 lines, 23 notes)
D8 |F2 A2 F4 |D2 F2 D4 |A8 |d2 f2 d4 |A2 d2 A4 |B8 |e2 g2 e4 |c2 e2 c4 |d8 |D16 |
%W:
% voice 1 (1 lines, 24 notes)
D8 |F2 A2 F4 |D2 F2 D4 |A8 |d2 f2 d4 |A2 d2 A4 |B8 |e2 g2 e4 |B2 e2 d4 |c12 |B4 A8 |
%W:
% voice 1 (1 lines, 23 notes)
D8 |F2 A2 F4 |D2 F2 D4 |A8 |d2 f2 d4 |A2 d2 A4 |B8 |e2 g2 e4 |c2 e2 c4 |d8 |D16 |
%W:
% voice 1 (1 lines, 20 notes)
f8 |D2 F2 A4 |d8 |g8 |E2 G2 B4 |e8 |a8 |F2 A2 d4 |f2 e2 d4 |c12 |B4 A8 |
%W:
% voice 1 (1 lines, 23 notes)
f8 |d2 f2 d4 |A2 d2 A4 |B8 |G2 B2 G4 |E2 G2 E4 |e8 |c2 e2 c4 |A2 c2 A4 |d8 |D16 |
%W:
% voice 1 (1 lines, 20 notes)
f8 |D2 F2 A4 |d8 |g8 |E2 G2 B4 |e8 |a8 |F2 A2 d4 |f2 e2 d4 |c12 |B4 A8 |
%W:
% voice 1 (1 lines, 23 notes)
f8 |d2 f2 d4 |A2 d2 A4 |B8 |G2 B2 G4 |E2 G2 E4 |e8 |c2 e2 c4 |A2 c2 A4 |d8 |D16 ||
